icons/op-baseline-16.svg

<svg width="16" height="16" viewBox="0 0 16 16" fill="none" xmlns="http://www.w3.org/2000/svg">
<g clip-path="url(#clip0_35_1770)">
<path fill-rule="evenodd" clip-rule="evenodd" d="M1 0.5C1.41421 0.5 1.75 0.835786 1.75 1.25L1.75 5.25C1.75 5.66421 1.41421 6 1 6C0.585787 6 0.25 5.66421 0.25 5.25L0.25 1.25C0.25 0.835786 0.585786 0.5 1 0.5Z" fill="#1F2328"/>
<path fill-rule="evenodd" clip-rule="evenodd" d="M1 10.5C1.41421 10.5 1.75 10.8358 1.75 11.25L1.75 15.25C1.75 15.6642 1.41421 16 1 16C0.585787 16 0.25 15.6642 0.25 15.25L0.25 11.25C0.25 10.8358 0.585786 10.5 1 10.5Z" fill="#1F2328"/>
<path d="M2 8.25C2 8.80229 1.55228 9.25 1 9.25C0.447715 9.25 0 8.80229 0 8.25C0 7.69772 0.447715 7.25 1 7.25C1.55228 7.25 2 7.69772 2 8.25Z" fill="#1F2328"/>
<path fill-rule="evenodd" clip-rule="evenodd" d="M10 12.75C12.4853 12.75 14.5 10.7353 14.5 8.25C14.5 5.76472 12.4853 3.75 10 3.75C7.51472 3.75 5.5 5.76472 5.5 8.25C5.5 10.7353 7.51472 12.75 10 12.75ZM10 14.25C13.3137 14.25 16 11.5637 16 8.25C16 4.93629 13.3137 2.25 10 2.25C6.68629 2.25 4 4.93629 4 8.25C4 11.5637 6.68629 14.25 10 14.25Z" fill="#1F2328"/>
<path d="M10.2803 5.46967C10.421 5.61032 10.5 5.80109 10.5 6V7.992L11.528 8.804C11.7067 8.88191 11.8481 9.02634 11.9221 9.20669C11.9961 9.38705 11.997 9.58914 11.9246 9.77014C11.8522 9.95115 11.7121 10.0968 11.5341 10.1763C11.3561 10.2558 11.1541 10.2629 10.971 10.196L9.471 9.196C9.33197 9.14028 9.21281 9.04421 9.12886 8.92017C9.04492 8.79612 9.00003 8.64978 9 8.5V6C9 5.80109 9.07902 5.61032 9.21967 5.46967C9.36032 5.32902 9.55109 5.25 9.75 5.25C9.94891 5.25 10.1397 5.32902 10.2803 5.46967Z" fill="#24292F"/>
</g>
<defs>
<clipPath id="clip0_35_1770">
<rect width="16" height="16" fill="white"/>
</clipPath>
</defs>
</svg>

<svg xmlns="http://www.w3.org/2000/svg" width="16" height="16" viewBox="0 0 16 16"><path d="M1 .5a.75.75 0 0 1 .75.75v4a.75.75 0 0 1-1.5 0v-4A.75.75 0 0 1 1 .5Zm0 10a.75.75 0 0 1 .75.75v4a.75.75 0 0 1-1.5 0v-4A.75.75 0 0 1 1 10.5Zm1-2.25a1 1 0 1 1-2 0 1 1 0 0 1 2 0Zm8 6a6 6 0 1 1 0-12 6 6 0 0 1 0 12Zm0-1.5a4.5 4.5 0 1 0 0-9 4.5 4.5 0 0 0 0 9Z"/><path d="M10.28 5.47c.141.14.22.331.22.53v1.992l1.028.812a.747.747 0 0 1 .397.966.75.75 0 0 1-.954.426l-1.5-1A.753.753 0 0 1 9 8.5V6c0-.199.079-.39.22-.53a.747.747 0 0 1 1.06 0Z"/></svg>
